X:259
T: To Daunton Me
N: O'Farrell's Pocket Companion v.3 (Sky ed. p.120)
N: "Scotch"
N: "Daunton" = to frighten, subdue, discourage
M: C
L: 1/8
R: hornpipe
Q: 320
K: Em
FA| B2 EF E2 AG| F2 EF D2 de| fedB dBAF| B2 EF E2 :|
FE| D2 de d3e| fedB A3d| B2 ef e3f| gfed B2 de|
f2 gf e2 fe| dedB ABde| fedB dBAF| B2E2E2 :|
